Flat-Remix/status/symbolic/org.gnome.Shell.Extensions.GSConnect-symbolic.svg

<svg xmlns="http://www.w3.org/2000/svg" viewBox="0 0 16 16">
 <path d="m 4 0 c -0.554 0 -1 0.446 -1 1 l 0 14 c 0 0.554 0.446 1 1 1 l 8 0 c 0.554 0 1 -0.446 1 -1 l 0 -14 c 0 -0.554 -0.446 -1 -1 -1 l -8 0 z m 1 2 l 6 0 l 0 11 l -6 0 l 0 -11 z" style="fill:#bebebe;opacity:1;fill-opacity:1;stroke:none;fill-rule:nonzero"/>
</svg>

<svg xmlns="http://www.w3.org/2000/svg" width="16" height="16" version="1.1">
 <path style="fill:#5c616c" d="M 4,0 C 3,0 3,1 3,1 V 15 C 3,15 3,16 4,16 H 12 C 13,16 13,15 13,15 V 1 C 13,1 13,0 12,0 Z M 5,2 H 11 V 12 H 5 Z M 8,13 A 1,1 0 0 1 9,14 1,1 0 0 1 8,15 1,1 0 0 1 7,14 1,1 0 0 1 8,13 Z"/>
</svg>
